icons/desktop/32/hockey-32.svg

<svg width="32" height="32" viewBox="0 0 32 32" fill="none" xmlns="http://www.w3.org/2000/svg">
<path fill-rule="evenodd" clip-rule="evenodd" d="M22.5659 5.07695C22.9108 4.47907 23.676 4.27421 24.2729 4.61992C24.8709 4.96492 25.0759 5.72993 24.7309 6.32793L14.022 24.8758C13.264 26.1868 11.8543 27.0008 10.3413 27.0008L10.3423 26.9998H6.07861C3.90069 26.9998 1.91914 25.4963 1.56103 23.3475C1.14603 20.8535 2.90565 18.5855 5.32665 18.2645C8.4714 17.8475 11.6921 17.9279 14.8169 18.4979L22.5659 5.07695ZM7.00048 20.5975C6.54986 20.6351 6.10012 20.6838 5.6538 20.743C4.71107 20.8682 4.00055 21.6732 4.00048 22.616C4.00048 23.655 4.84527 24.4998 5.88427 24.4998H7.00048V20.5975ZM9.50048 24.4998H10.3423C10.9653 24.4998 11.5449 24.1648 11.8579 23.6248L13.4829 20.8104C12.1645 20.6129 10.8315 20.509 9.50048 20.5008V24.4998Z" fill="black"/>
<path fill-rule="evenodd" clip-rule="evenodd" d="M20.1206 18.1248C22.3045 17.9428 24.5074 17.9775 26.6743 18.2645V18.2625C28.8552 18.5525 30.5004 20.4222 30.5005 22.6141C30.5005 25.0309 28.5335 26.9976 26.1157 26.9979H21.6587C20.1457 26.9979 18.735 26.1839 17.978 24.8729L17.1001 23.3533L18.5434 20.8543L20.1431 23.6238C20.4551 24.1638 21.0357 24.4988 21.6587 24.4988H22.5005V20.5018C21.1867 20.5105 19.8729 20.6116 18.5747 20.8035L20.1206 18.1248ZM25.0005 24.4988H26.1157C27.1545 24.4986 28.0005 23.6539 28.0005 22.615C28.0004 21.6721 27.2891 20.867 26.3462 20.742C25.8992 20.6825 25.4504 20.6349 25.0005 20.5975V24.4988Z" fill="black"/>
<path d="M7.72607 4.61992C8.32299 4.27397 9.08803 4.47913 9.4331 5.07695L15.7407 15.9998L12.854 16.0008L7.26903 6.32793C6.92327 5.72999 7.1282 4.96488 7.72607 4.61992Z" fill="black"/>
</svg>

<!-- This Source Code Form is subject to the terms of the Mozilla Public
   - License, v. 2.0. If a copy of the MPL was not distributed with this
   - file, You can obtain one at http://mozilla.org/MPL/2.0/. -->
<svg xmlns="http://www.w3.org/2000/svg" width="32" height="32" fill="context-fill" fill-opacity="context-fill-opacity" viewBox="0 0 32 32">
    <path fill-rule="evenodd" d="M22.566 5.077a1.25 1.25 0 0 1 2.165 1.251L14.022 24.876A4.26 4.26 0 0 1 10.342 27V27H6.08c-2.178 0-4.16-1.504-4.518-3.652-.415-2.494 1.345-4.762 3.766-5.083a30.6 30.6 0 0 1 9.49.233zM7 20.597q-.676.057-1.346.146A1.9 1.9 0 0 0 4 22.616c0 1.039.845 1.884 1.884 1.884H7zM9.5 24.5h.842c.623 0 1.203-.335 1.516-.875l1.625-2.815A28 28 0 0 0 9.5 20.5zM20.12 18.125a30.6 30.6 0 0 1 6.554.14v-.003c2.181.29 3.826 2.16 3.826 4.352a4.39 4.39 0 0 1-4.384 4.384h-4.457a4.26 4.26 0 0 1-3.681-2.125l-.878-1.52 1.443-2.499 1.6 2.77c.312.54.893.875 1.516.875h.841v-3.997c-1.313.009-2.627.11-3.925.302zM25 24.499h1.116A1.887 1.887 0 0 0 28 22.615c0-.943-.71-1.748-1.654-1.873q-.67-.089-1.346-.145z" clip-rule="evenodd" />
    <path d="M7.726 4.62a1.25 1.25 0 0 1 1.707.457L15.741 16h-2.887L7.269 6.329a1.25 1.25 0 0 1 .457-1.708" />
</svg>
